X: 5
T: Maggie In The Woods
R: polka
M: 2/4
L: 1/8
K: Gmaj
|: B/A/ |GD G>A | Bd e/f/g/e/ | dB AG/A/ | BA AB/A/ |
GD G>A | Bd e/f/g/e/ | dB AF | G2 G :|
|: f |g>f ed | gd BG/B/ | dB AG/A/ | BA Ad |
gf ed | gd BG/B/ | dB AF | G2 G :|


Tune 291	Setting 13043

